X:329
T:Fairy Dance
M:4/4
L:1/8
K:G
B2 BG B2 BG | B2 BG FG Ac | 
B2 BG cB AG | FD EF GA Bc | 
B2 BG B2 BG | B2 BG FG Ac | 
B2 BG cB AG | FD EF GA Bc || 
d2 dB e2 ed | cB cA d2 dc | 
B2 BG cB AG | FD EF GA Bc | 
d2 dB e2 ed | cB cA d2 dc | 
B2 BG cB AG | FD EF G2G2 || 

